X:230
T: Qi bai ma
N: C0367
O: China, Shaanxi, Nord
S: MM, vorhanden, handschriftlich), 1. Variante von "Rote Schuhe" und
N: Saengerin: Huang Bai.
N: Dong Fang hong - Vorlaeufer. Erster Text der 8. Armee. - Singt eine
N: zusaetzliche, nicht notierte! Punktierung.
R: Xiaodiao. Xin minge]
M: 2/4
L: 1/8
K: F
c2cd | G3c | AGFD | G4
c2GA | F2ED | C2c2 | G2
AG | F2ED | GAGF | GFED | C4

